synths/sETC.svg

<svg width="42" height="42" viewBox="0 0 42 42" fill="none" xmlns="http://www.w3.org/2000/svg">
<g clip-path="url(#clip0_7277_57934)">
<mask id="mask0_7277_57934" style="mask-type:alpha" maskUnits="userSpaceOnUse" x="0" y="0" width="42" height="42">
<circle cx="21" cy="21" r="21" transform="matrix(-1 0 0 1 42 0)" fill="url(#paint0_linear_7277_57934)"/>
</mask>
<g mask="url(#mask0_7277_57934)">
<circle cx="21" cy="21" r="21" transform="matrix(-1 0 0 1 42 0)" fill="#34EDB3"/>
<circle cx="18.2" cy="18.2" r="18.2" transform="matrix(-1 0 0 1 39.2 2.80005)" fill="white"/>
</g>
<circle cx="16.1" cy="16.1" r="16.1" transform="matrix(-1 0 0 1 37.1 4.90002)" fill="#0B0B22"/>
<g clip-path="url(#clip1_7277_57934)">
<path d="M21 37.1C29.8918 37.1 37.1 29.8918 37.1 21C37.1 12.1082 29.8918 4.90002 21 4.90002C12.1082 4.90002 4.90002 12.1082 4.90002 21C4.90002 29.8918 12.1082 37.1 21 37.1Z" fill="#328332"/>
<path d="M20.989 21.5565L14.2259 20.9759L20.9879 17.1501V21.5565H20.989ZM20.989 26.0444V33.0278C18.6373 29.367 16.0452 25.338 13.9563 22.0767C16.4216 23.4654 18.9956 24.9174 20.989 26.0454V26.0444ZM20.989 15.9135L13.9563 19.8378L20.989 8.92505V15.9135V15.9135Z" fill="white"/>
<path d="M27.7516 20.9759L20.9886 21.5565V17.1501L27.7506 20.9759H27.7516ZM20.9886 26.0454C22.981 24.9184 25.554 23.4654 28.0203 22.0767C25.9313 25.339 23.3392 29.368 20.9886 33.0267V26.0454V26.0454ZM20.9886 15.9135V8.92505L28.0203 19.8378L20.9886 15.9135V15.9135Z" fill="white" fill-opacity="0.601"/>
<path opacity="0.2" fill-rule="evenodd" clip-rule="evenodd" d="M20.9886 21.5566L27.7506 20.976L20.9886 24.7745V21.5566Z" fill="white"/>
<path opacity="0.603" fill-rule="evenodd" clip-rule="evenodd" d="M20.9884 21.5566L14.2254 20.976L20.9884 24.7745V21.5566Z" fill="white"/>
</g>
</g>
<defs>
<linearGradient id="paint0_linear_7277_57934" x1="21" y1="0" x2="21" y2="61.4091" gradientUnits="userSpaceOnUse">
<stop stop-color="#08021E"/>
<stop offset="1" stop-color="#1F0777"/>
</linearGradient>
<clipPath id="clip0_7277_57934">
<rect width="42" height="42" fill="white"/>
</clipPath>
<clipPath id="clip1_7277_57934">
<rect width="32.2" height="32.2" fill="white" transform="translate(4.90002 4.90002)"/>
</clipPath>
</defs>
</svg>

<svg xmlns="http://www.w3.org/2000/svg" width="42" height="42" fill="none"><g clip-path="url(#a)"><mask id="c" width="42" height="42" x="0" y="0" maskUnits="userSpaceOnUse" style="mask-type:alpha"><circle cx="21" cy="21" r="21" fill="url(#b)" transform="matrix(-1 0 0 1 42 0)"/></mask><g mask="url(#c)"><circle cx="21" cy="21" r="21" fill="#34EDB3" transform="matrix(-1 0 0 1 42 0)"/><circle cx="18.2" cy="18.2" r="18.2" fill="#fff" transform="matrix(-1 0 0 1 39.2 2.8)"/></g><circle cx="16.1" cy="16.1" r="16.1" fill="#0B0B22" transform="matrix(-1 0 0 1 37.1 4.9)"/><g clip-path="url(#d)"><path fill="#328332" d="M21 37.1c8.892 0 16.1-7.208 16.1-16.1 0-8.892-7.208-16.1-16.1-16.1-8.892 0-16.1 7.208-16.1 16.1 0 8.892 7.208 16.1 16.1 16.1Z"/><path fill="#fff" d="m20.989 21.556-6.763-.58 6.762-3.826v4.407h.001Zm0 4.488v6.984c-2.352-3.661-4.944-7.69-7.033-10.951 2.466 1.388 5.04 2.84 7.033 3.968Zm0-10.13-7.033 3.924L20.99 8.925v6.989Z"/><path fill="#fff" fill-opacity=".601" d="m27.752 20.976-6.763.58V17.15l6.762 3.826Zm-6.763 5.07c1.992-1.128 4.565-2.58 7.031-3.97-2.089 3.263-4.68 7.292-7.031 10.95v-6.98Zm0-10.132V8.925l7.031 10.913-7.031-3.925Z"/><path fill="#fff" fill-rule="evenodd" d="m20.989 21.557 6.762-.581-6.762 3.799v-3.218Z" clip-rule="evenodd" opacity=".2"/><path fill="#fff" fill-rule="evenodd" d="m20.988 21.557-6.763-.581 6.763 3.799v-3.218Z" clip-rule="evenodd" opacity=".603"/></g></g><defs><clipPath id="a"><path fill="#fff" d="M0 0h42v42H0z"/></clipPath><clipPath id="d"><path fill="#fff" d="M4.9 4.9h32.2v32.2H4.9z"/></clipPath><linearGradient id="b" x1="21" x2="21" y1="0" y2="61.409" gradientUnits="userSpaceOnUse"><stop stop-color="#08021E"/><stop offset="1" stop-color="#1F0777"/></linearGradient></defs></svg>
